images/raw/DSC_2557.xmp
<?xml version="1.0" encoding="UTF-8"?>
<x:xmpmeta xmlns:x="adobe:ns:meta/" x:xmptk="SideLight">
  <rdf:RDF xmlns:rdf="http://www.w3.org/1999/02/22-rdf-syntax-ns#">
    <rdf:Description rdf:about="" xmlns:crs="http://ns.adobe.com/camera-raw-settings/1.0/" crs:ProcessVersion="11.0" crs:Contrast2012="15" crs:Highlights2012="-25" crs:Shadows2012="35" crs:Whites2012="5" crs:Blacks2012="-10" crs:Texture="10" crs:Clarity2012="15" crs:Dehaze="5" crs:Vibrance="15" crs:Temperature="6050" crs:Tint="10" crs:Sharpness="40"></rdf:Description>
  </rdf:RDF>
</x:xmpmeta>