images/raw/KAI01144.xmp
<?xml version="1.0" encoding="UTF-8"?>
<x:xmpmeta xmlns:x="adobe:ns:meta/" x:xmptk="SideLight">
  <rdf:RDF xmlns:rdf="http://www.w3.org/1999/02/22-rdf-syntax-ns#">
    <rdf:Description rdf:about="" xmlns:crs="http://ns.adobe.com/camera-raw-settings/1.0/" crs:ProcessVersion="11.0" crs:Exposure2012="0.3" crs:Contrast2012="18" crs:Highlights2012="-65" crs:Shadows2012="55" crs:Whites2012="-25" crs:Blacks2012="-15" crs:Texture="8" crs:Clarity2012="12" crs:Dehaze="25" crs:Vibrance="12" crs:Temperature="6050" crs:Tint="8" crs:Sharpness="45"></rdf:Description>
  </rdf:RDF>
</x:xmpmeta>